X: 24658
T: MacGregor Of Rora
R: waltz
M: 3/4
K: Adorian
A>B e2 e2|e>d e2 A2|A>B e2 e2|f>e e<d B<A|
A>B d2 e<d|B>A G2 g2|d<e G2 A2|dc B2 A2:|
g>e a2 a2|ge d2 d2|g>e a2 a2|g>e g2 d2|
e>f g2 a2|g>e d2 g2|e<g G2 A2|d>c B2 A2|
g>e a2 a2|ge d2 d2|g>e a2 a2|g>e g2 d2|
e>f g2 a2|g>e d2 a2|e/f/g G2 A2|d>c B2 A2||

